!!!COM: Bach, Johann Sebastian
!!!OPR: Joh. Seb. Bachs vierstimmige Choralges‰nge
!!!XEN: Four-part Chorales
!!!OTL: 96. Ich dank' dir schon durch deinen Sohn
!!!SCT: BWV 349
!!!SCA: Thematisch-systematisches Verzeichnis der musikalischen Werke Johann Sebastian Bach: Bach-Werke-Verzeichnis (Schmieder)
!!!YOR: Bach Gesellschaft Edition xxxix
!!!ENC: Steven Rasmussen
!!!CDT: 1685/3//-1750/7/28/
!!!OCY: Deutschland
!!!YEC: Copyright (c) 1994, 2000 Center for Computer Assisted Research in the Humanities
!!!YEM: Rights to all derivative editions reserved
!!!YEN: United States of America
**kern	**silbe	**kern	**silbe	**kern	**silbe	**kern	**silbe
*I:[BASSO]	*I:[BASSO]	*I:[TENORE]	*I:[TENORE]	*I:[ALTO]	*I:[ALTO]	*I:[SOPRANO]	*I:[SOPRANO]
*clefF4	*	*clefGv2	*	*clefG2	*	*clefG2	*
*k[b-]	*	*k[b-]	*	*k[b-]	*	*k[b-]	*
*F:	*	*F:	*	*F:	*	*F:	*
*M3/4	*	*M3/4	*	*M3/4	*	*M3/4	*
=1-	=1-	=1-	=1-	=1-	=1-	=1-	=1-
4F	.	4A	.	4c	.	4f	Ich
8FL	.	4A	.	4c	.	4f	dank'
8EJ	.	.	.	.	.	.	.
4D	.	4A	dir	[4f	dir	4f	dir
=2	=2	=2	=2	=2	=2	=2	=2
4G	.	8GL	schon	4f]	.	2b-	schon
.	.	8AJ	.	.	.	.	.
4GG	.	4B-	.	8eL	schon	.	.
.	.	.	.	8dJ	.	.	.
4C	.	4c	.	4e	.	4g	durch
=3	=3	=3	=3	=3	=3	=3	=3
4F	.	2c	.	2f	.	2a	dei-
4E	.	.	.	.	.	.	.
4D	.	4d	.	4f	.	4bn	-nen
=4	=4	=4	=4	=4	=4	=4	=4
2.C;	.	2.e;	.	2.g;	.	2.cc;	Sohn,
=5	=5	=5	=5	=5	=5	=5	=5
8FL	.	4c	.	4f	.	4a	o
8E-J	.	.	.	.	.	.	.
4D	.	4d	.	4f	.	4b-	Gott,
4C	.	4e-	.	8gL	.	4cc	f√ºr
.	.	.	.	8aJ	.	.	.
=6	=6	=6	=6	=6	=6	=6	=6
(4BB-	.	2f	.	2b-	.	2dd	dei-
4C)	.	.	.	.	.	.	.
4D	.	4f	.	4b-	.	4b-	-ne
=7	=7	=7	=7	=7	=7	=7	=7
4E-	.	8gL	.	2b-	.	2.cc	G√º-
.	.	8f	.	.	.	.	.
4C	.	8e-	.	.	.	.	.
.	.	8d	.	.	.	.	.
4F	.	8c	.	4a	.	.	.
.	.	8e-J	.	.	.	.	.
=8	=8	=8	=8	=8	=8	=8	=8
2.BB-;	.	8e-L	.	2.f;	.	2.b-;	-te,
.	.	16dL	.	.	.	.	.
.	.	16cJJ	.	.	.	.	.
.	.	2d;	.	.	.	.	.
=9	=9	=9	=9	=9	=9	=9	=9
4E	.	4c	.	4g	.	4cc	dass
4F	.	4c	.	4f	.	8aL	du
.	.	.	.	.	.	8b-J	.
4AA	mich	[4c	mich	4f	.	4cc	mich
=10	=10	=10	=10	=10	=10	=10	=10
8BB-L	heut'	4c]	.	2f	.	2dd	heut'
8C	.	.	.	.	.	.	.
8D	.	4B-	heut'	.	.	.	.
8EJ	.	.	.	.	.	.	.
4F	.	4A	.	4f	.	4cc	in
=11	=11	=11	=11	=11	=11	=11	=11
4E	.	4G	.	8gL	.	4.cc	die-
.	.	.	.	8fJ	.	.	.
4C	.	4c	.	4e	.	.	.
.	.	.	.	.	.	8b-	.
4F	.	4c	.	4f	.	4a	-ser
=12	=12	=12	=12	=12	=12	=12	=12
2.C;	.	2.c;	.	(4f	.	2.g;	Nacht
.	.	.	.	2e;)	.	.	.
=13	=13	=13	=13	=13	=13	=13	=13
4A	.	4c	.	4f	.	4cc	so
4E	.	4c	.	8gL	.	4cc	gn√§-
.	.	.	.	8b-J	.	.	.
4F	.	8fL	.	4a	.	4cc	-dig
.	.	8eJ	.	.	.	.	.
=14	=14	=14	=14	=14	=14	=14	=14
4G	.	4d	.	4g	.	2b-	hast
4C	.	4c	.	8fL	.	.	.
.	.	.	.	8eJ	.	.	.
4F	.	4c	.	4f	.	4a	be-
=15	=15	=15	=15	=15	=15	=15	=15
4AA	.	4c	.	2f	.	4a	-h√º-
4BB-	.	4d	.	.	.	2g	.
4C	.	8cL	.	4e	.	.	.
.	.	8B-J	.	.	.	.	.
=16	=16	=16	=16	=16	=16	=16	=16
2.FF;	.	2.A;	.	2.c;	.	2.f;	-tet.
==|!	==|!	==|!	==|!	==|!	==|!	==|!	==|!
*-	*-	*-	*-	*-	*-	*-	*-
!!!RWG: Key is interpreted using the Humdrum key tool.
!!!END: 1994/06/27
!!!EMD: Converted from MuseData to Humdrum Dec 19, 2000, by Andreas Kornstaedt using muse2kern.
!!!EED: Craig Stuart Sapp
!!!EEV: 2024/03/31
!!!ONB: Some non-unicode characters
!!!filter-keyboard: satb2gs
